X: 8492
T: Crazyace's
R: jig
M: 6/8
K: Dmajor
|:dAA cAA|BGB AFA|dAA cAA|BGB A2 c|
dAA cAA|BGB AFA|dAA cBA|ABc d2 A:|
|:dff aff|edc eAA|dff aff|ef^g a2 c|
dAA cAA|BGB AFA|dff aff|1 ABc d2 A:|2 ABc d3||

